packages/assets/static/images/icons/cash.svg

<svg width="24" height="24" viewBox="0 0 24 24" xmlns="http://www.w3.org/2000/svg">
<g clip-path="url(#clip0_2001_46057)">
<path d="M12.5 8.25C11.7583 8.25 11.0333 8.46993 10.4166 8.88199C9.79993 9.29404 9.31928 9.87971 9.03545 10.5649C8.75162 11.2502 8.67736 12.0042 8.82205 12.7316C8.96675 13.459 9.3239 14.1272 9.84835 14.6517C10.3728 15.1761 11.041 15.5333 11.7684 15.6779C12.4958 15.8226 13.2498 15.7484 13.9351 15.4645C14.6203 15.1807 15.206 14.7001 15.618 14.0834C16.0301 13.4667 16.25 12.7417 16.25 12C16.25 11.0054 15.8549 10.0516 15.1517 9.34835C14.4484 8.64509 13.4946 8.25 12.5 8.25ZM12.5 14.25C12.055 14.25 11.62 14.118 11.25 13.8708C10.88 13.6236 10.5916 13.2722 10.4213 12.861C10.251 12.4499 10.2064 11.9975 10.2932 11.561C10.38 11.1246 10.5943 10.7237 10.909 10.409C11.2237 10.0943 11.6246 9.88005 12.061 9.79323C12.4975 9.70642 12.9499 9.75097 13.361 9.92127C13.7722 10.0916 14.1236 10.38 14.3708 10.75C14.618 11.12 14.75 11.555 14.75 12C14.75 12.5967 14.5129 13.169 14.091 13.591C13.669 14.0129 13.0967 14.25 12.5 14.25ZM23 5.25H2C1.80109 5.25 1.61032 5.32902 1.46967 5.46967C1.32902 5.61032 1.25 5.80109 1.25 6V18C1.25 18.1989 1.32902 18.3897 1.46967 18.5303C1.61032 18.671 1.80109 18.75 2 18.75H23C23.1989 18.75 23.3897 18.671 23.5303 18.5303C23.671 18.3897 23.75 18.1989 23.75 18V6C23.75 5.80109 23.671 5.61032 23.5303 5.46967C23.3897 5.32902 23.1989 5.25 23 5.25ZM18.6547 17.25H6.34531C6.0935 16.3984 5.63263 15.6233 5.00467 14.9953C4.37671 14.3674 3.60162 13.9065 2.75 13.6547V10.3453C3.60162 10.0935 4.37671 9.63263 5.00467 9.00467C5.63263 8.37671 6.0935 7.60162 6.34531 6.75H18.6547C18.9065 7.60162 19.3674 8.37671 19.9953 9.00467C20.6233 9.63263 21.3984 10.0935 22.25 10.3453V13.6547C21.3984 13.9065 20.6233 14.3674 19.9953 14.9953C19.3674 15.6233 18.9065 16.3984 18.6547 17.25ZM22.25 8.75344C21.3504 8.36662 20.6334 7.64959 20.2466 6.75H22.25V8.75344ZM4.75344 6.75C4.36662 7.64959 3.64959 8.36662 2.75 8.75344V6.75H4.75344ZM2.75 15.2466C3.64959 15.6334 4.36662 16.3504 4.75344 17.25H2.75V15.2466ZM20.2466 17.25C20.6334 16.3504 21.3504 15.6334 22.25 15.2466V17.25H20.2466Z"/>
</g>
<defs>
<clipPath id="clip0_2001_46057">
<rect width="24" height="24"/>
</clipPath>
</defs>
</svg>

<svg viewBox="0 0 24 24" xmlns="http://www.w3.org/2000/svg" aria-hidden="true" fill="currentColor"><g clip-path="url(#a)"><path d="M12.5 8.25a3.75 3.75 0 1 0 0 7.5 3.75 3.75 0 0 0 0-7.5m0 6a2.25 2.25 0 1 1 0-4.5 2.25 2.25 0 0 1 0 4.5m10.5-9H2a.75.75 0 0 0-.75.75v12a.75.75 0 0 0 .75.75h21a.75.75 0 0 0 .75-.75V6a.75.75 0 0 0-.75-.75m-4.345 12H6.345a5.32 5.32 0 0 0-3.595-3.595v-3.31A5.32 5.32 0 0 0 6.345 6.75h12.31a5.32 5.32 0 0 0 3.595 3.595v3.31a5.32 5.32 0 0 0-3.595 3.595m3.595-8.497a3.83 3.83 0 0 1-2.003-2.003h2.003zM4.753 6.75A3.83 3.83 0 0 1 2.75 8.753V6.75zM2.75 15.247a3.83 3.83 0 0 1 2.003 2.003H2.75zm17.497 2.003a3.83 3.83 0 0 1 2.003-2.003v2.003z"/></g><defs><clipPath id="a"><path d="M0 0h24v24H0z"/></clipPath></defs></svg>
